docs/.gitbook/assets/icon-plus-square-16@dark.svg

<svg width="32" height="32" viewBox="0 0 16 16" fill="none" xmlns="http://www.w3.org/2000/svg">
<rect x="0" y="0" width="16" height="16" fill="#181c1f"/>
<path fill-rule="evenodd" clip-rule="evenodd" d="M1 5.75C1 3.12665 3.12665 1 5.75 1H10.25C12.8734 1 15 3.12665 15 5.75V10.25C15 12.8734 12.8734 15 10.25 15H5.75C3.12665 15 1 12.8734 1 10.25V5.75ZM5.75 2.5C3.95507 2.5 2.5 3.95507 2.5 5.75V10.25C2.5 12.0449 3.95507 13.5 5.75 13.5H10.25C12.0449 13.5 13.5 12.0449 13.5 10.25V5.75C13.5 3.95507 12.0449 2.5 10.25 2.5H5.75ZM8 4.5C8.41421 4.5 8.75 4.83579 8.75 5.25V7.25H10.75C11.1642 7.25 11.5 7.58579 11.5 8C11.5 8.41421 11.1642 8.75 10.75 8.75H8.75V10.75C8.75 11.1642 8.41421 11.5 8 11.5C7.58579 11.5 7.25 11.1642 7.25 10.75V8.75H5.25C4.83579 8.75 4.5 8.41421 4.5 8C4.5 7.58579 4.83579 7.25 5.25 7.25H7.25V5.25C7.25 4.83579 7.58579 4.5 8 4.5Z" fill="#fff"/>
</svg>

<svg xmlns="http://www.w3.org/2000/svg" width="32" height="32" fill="none" viewBox="0 0 16 16"><path fill="#181c1f" d="M0 0h16v16H0z"/><path fill="#fff" fill-rule="evenodd" d="M1 5.75A4.75 4.75 0 0 1 5.75 1h4.5A4.75 4.75 0 0 1 15 5.75v4.5A4.75 4.75 0 0 1 10.25 15h-4.5A4.75 4.75 0 0 1 1 10.25zM5.75 2.5A3.25 3.25 0 0 0 2.5 5.75v4.5a3.25 3.25 0 0 0 3.25 3.25h4.5a3.25 3.25 0 0 0 3.25-3.25v-4.5a3.25 3.25 0 0 0-3.25-3.25zM8 4.5a.75.75 0 0 1 .75.75v2h2a.75.75 0 0 1 0 1.5h-2v2a.75.75 0 0 1-1.5 0v-2h-2a.75.75 0 0 1 0-1.5h2v-2A.75.75 0 0 1 8 4.5" clip-rule="evenodd"/></svg>
